img/icon_3.svg

<svg fill="none" height="80" viewBox="0 0 80 80" width="80" xmlns="http://www.w3.org/2000/svg" xmlns:xlink="http://www.w3.org/1999/xlink"><linearGradient id="a"><stop offset="0" stop-color="#dafffb"/><stop offset=".5" stop-color="#c6ebfc"/><stop offset="1" stop-color="#b3d7fe"/></linearGradient><linearGradient id="b" gradientUnits="userSpaceOnUse" x1="26.8069" x2="26.8069" xlink:href="#a" y1="20.2126" y2="29.7839"/><linearGradient id="c" gradientUnits="userSpaceOnUse" x1="39.3774" x2="39.3774" xlink:href="#a" y1="19.9375" y2="29.9463"/><linearGradient id="d" gradientUnits="userSpaceOnUse" x1="53.1177" x2="53.1177" xlink:href="#a" y1="20.2126" y2="29.7839"/><linearGradient id="e" gradientUnits="userSpaceOnUse" x1="28.2176" x2="28.2176" xlink:href="#a" y1="33.1846" y2="43.1933"/><linearGradient id="f" gradientUnits="userSpaceOnUse" x1="39.6784" x2="39.6784" xlink:href="#a" y1="33.4598" y2="43.0311"/><linearGradient id="g" gradientUnits="userSpaceOnUse" x1="51.6467" x2="51.6467" xlink:href="#a" y1="33.1846" y2="43.1933"/><linearGradient id="h" gradientUnits="userSpaceOnUse" x1="29.3359" x2="29.3359" xlink:href="#a" y1="46.707" y2="56.2782"/><linearGradient id="i" gradientUnits="userSpaceOnUse" x1="41.2097" x2="41.2097" xlink:href="#a" y1="46.707" y2="56.2782"/><linearGradient id="j" gradientUnits="userSpaceOnUse" x1="52.2489" x2="52.2489" xlink:href="#a" y1="46.707" y2="56.2782"/><mask id="k" height="48" maskUnits="userSpaceOnUse" width="48" x="16" y="16"><path d="m64 16h-48v48h48z" fill="#fff"/></mask><path d="m0 24c0-13.2548 10.7452-24 24-24h32c13.2548 0 24 10.7452 24 24v32c0 13.2548-10.7452 24-24 24h-32c-13.2548 0-24-10.7452-24-24z" fill="#222425"/><g mask="url(#k)"><path d="m28.8372 32.2558v-8.895h3.5269v-3.1482h-11.1141v3.1482h3.5269v8.895z" stroke="#0054d8" stroke-linecap="round" stroke-linejoin="round" stroke-width="3.75"/><path d="m28.8372 32.2558v-8.895h3.5269v-3.1482h-11.1141v3.1482h3.5269v8.895z" fill="url(#b)"/><path d="m39.3773 23.2235c-.5044 0-.96.1238-1.3678.3703-.4069.2466-.7313.5963-.9722 1.0491s-.3609.9834-.3609 1.5909c0 .6085.12 1.1391.3609 1.5919s.5653.8025.9722 1.0491c.4078.2465.8634.3703 1.3678.3703s.9609-.1238 1.3678-.3703c.4069-.2466.7313-.5963.9722-1.0491s.3609-.9834.3609-1.5919c0-.6075-.12-1.1381-.3609-1.5909s-.5653-.8025-.9722-1.0491c-.4069-.2465-.8634-.3703-1.3678-.3703zm.0004-3.286c1.2956 0 2.46.2691 3.4922.8081 1.0321.5391 1.8403 1.2882 2.4253 2.2453.585.9582.8775 2.0391.8775 3.2429 0 1.2046-.2925 2.2856-.8775 3.2437-.585.9572-1.3932 1.7053-2.4253 2.2444-1.0322.539-2.1966.809-3.4922.809-1.2966 0-2.461-.27-3.4932-.809-1.0321-.5391-1.8403-1.2872-2.4253-2.2444-.585-.9581-.8775-2.0391-.8775-3.2437 0-1.2038.2925-2.2847.8775-3.2429.585-.9571 1.3932-1.7062 2.4253-2.2453 1.0322-.539 2.1966-.8081 3.4932-.8081z" stroke="#0054d8" stroke-linecap="round" stroke-linejoin="round" stroke-width="3.75"/><path d="m39.3773 23.2235c-.5044 0-.96.1238-1.3678.3703-.4069.2466-.7313.5963-.9722 1.0491s-.3609.9834-.3609 1.5909c0 .6085.12 1.1391.3609 1.5919s.5653.8025.9722 1.0491c.4078.2465.8634.3703 1.3678.3703s.9609-.1238 1.3678-.3703c.4069-.2466.7313-.5963.9722-1.0491s.3609-.9834.3609-1.5919c0-.6075-.12-1.1381-.3609-1.5909s-.5653-.8025-.9722-1.0491c-.4069-.2465-.8634-.3703-1.3678-.3703zm.0004-3.286c1.2956 0 2.46.2691 3.4922.8081 1.0321.5391 1.8403 1.2882 2.4253 2.2453.585.9582.8775 2.0391.8775 3.2429 0 1.2046-.2925 2.2856-.8775 3.2437-.585.9572-1.3932 1.7053-2.4253 2.2444-1.0322.539-2.1966.809-3.4922.809-1.2966 0-2.461-.27-3.4932-.809-1.0321-.5391-1.8403-1.2872-2.4253-2.2444-.585-.9581-.8775-2.0391-.8775-3.2437 0-1.2038.2925-2.2847.8775-3.2429.585-.9571 1.3932-1.7062 2.4253-2.2453 1.0322-.539 2.1966-.8081 3.4932-.8081z" fill="url(#c)"/><path d="m53.0143 23.3438h-1.4794v2.8219h1.4794c.5503 0 .9637-.1238 1.2384-.3703.2757-.2466.4135-.5935.4135-1.0407 0-.4471-.1378-.794-.4135-1.0406-.2662-.24-.6628-.3628-1.1887-.3703zm.258-3.1312h.0834c1.0782.0094 2.0194.1932 2.8247.5504.825.3675 1.4616.8943 1.9097 1.5834.4472.6881.6703 1.4906.6703 2.4084 0 .9169-.2231 1.7203-.6703 2.4085-.4481.6881-1.0847 1.2159-1.9097 1.5825-.8053.3581-1.7465.5409-2.8247.5503h-.0834-1.7372v2.9597h-4.0603v-12.0432z" stroke="#0054d8" stroke-linecap="round" stroke-linejoin="round" stroke-width="3.75"/><path d="m53.0143 23.3438h-1.4794v2.8219h1.4794c.5503 0 .9637-.1238 1.2384-.3703.2757-.2466.4135-.5935.4135-1.0407 0-.4471-.1378-.794-.4135-1.0406-.2662-.24-.6628-.3628-1.1887-.3703zm.258-3.1312h.0834c1.0782.0094 2.0194.1932 2.8247.5504.825.3675 1.4616.8943 1.9097 1.5834.4472.6881.6703 1.4906.6703 2.4084 0 .9169-.2231 1.7203-.6703 2.4085-.4481.6881-1.0847 1.2159-1.9097 1.5825-.8053.3581-1.7465.5409-2.8247.5503h-.0834-1.7372v2.9597h-4.0603v-12.0432z" fill="url(#d)"/><path d="m28.0368 45.778c1.2047 0 2.2285-.1809 3.0713-.5419.8428-.3609 1.4765-.8484 1.9012-1.4625.4238-.6131.6366-1.2984.6366-2.0559 0-.8719-.2325-1.56-.6975-2.0644-.4641-.5044-1.0116-.869-1.6425-1.0922-.6309-.224-1.4053-.4218-2.3231-.5934-.7107-.1378-1.2216-.2672-1.531-.3872-.3093-.1209-.464-.3009-.464-.5419 0-.5053.5212-.7575 1.5656-.7575 1.0547 0 2.1731.2982 3.3544.8944l1.2215-2.9419c-.6075-.344-1.3106-.6047-2.1075-.7828-.7968-.1772-1.6087-.2662-2.4347-.2662-1.2037 0-2.2275.1781-3.0703.5334-.8437.3553-1.4765.8428-1.9012 1.4625-.4247.6188-.6366 1.3069-.6366 2.0644 0 .8719.2297 1.5628.6881 2.0728.4585.5109.9975.8775 1.6172 1.1016.6197.2231 1.3932.4321 2.3222.6271.7228.1491 1.2422.2869 1.5572.4135.3159.1256.4734.315.4734.5672 0 .2184-.1209.3815-.3618.4903-.241.1097-.6422.164-1.2038.164-.6544 0-1.3359-.1003-2.0475-.3009-.7115-.2006-1.3537-.4678-1.9265-.8006l-1.3079 2.9597c.6075.3778 1.3847.6797 2.3316.9028.9459.224 1.9181.3356 2.9156.3356z" stroke="#0054d8" stroke-linecap="round" stroke-linejoin="round" stroke-width="3.75"/><path d="m28.0368 45.778c1.2047 0 2.2285-.1809 3.0713-.5419.8428-.3609 1.4765-.8484 1.9012-1.4625.4238-.6131.6366-1.2984.6366-2.0559 0-.8719-.2325-1.56-.6975-2.0644-.4641-.5044-1.0116-.869-1.6425-1.0922-.6309-.224-1.4053-.4218-2.3231-.5934-.7107-.1378-1.2216-.2672-1.531-.3872-.3093-.1209-.464-.3009-.464-.5419 0-.5053.5212-.7575 1.5656-.7575 1.0547 0 2.1731.2982 3.3544.8944l1.2215-2.9419c-.6075-.344-1.3106-.6047-2.1075-.7828-.7968-.1772-1.6087-.2662-2.4347-.2662-1.2037 0-2.2275.1781-3.0703.5334-.8437.3553-1.4765.8428-1.9012 1.4625-.4247.6188-.6366 1.3069-.6366 2.0644 0 .8719.2297 1.5628.6881 2.0728.4585.5109.9975.8775 1.6172 1.1016.6197.2231 1.3932.4321 2.3222.6271.7228.1491 1.2422.2869 1.5572.4135.3159.1256.4734.315.4734.5672 0 .2184-.1209.3815-.3618.4903-.241.1097-.6422.164-1.2038.164-.6544 0-1.3359-.1003-2.0475-.3009-.7115-.2006-1.3537-.4678-1.9265-.8006l-1.3079 2.9597c.6075.3778 1.3847.6797 2.3316.9028.9459.224 1.9181.3356 2.9156.3356z" fill="url(#e)"/><path d="m44.6845 45.503v-3.0628h-6.0216v-1.5825h5.0925v-2.925h-5.0925v-1.411h5.7985v-3.0619h-9.7894v12.0432z" stroke="#0054d8" stroke-linecap="round" stroke-linejoin="round" stroke-width="3.75"/><path d="m44.6845 45.503v-3.0628h-6.0216v-1.5825h5.0925v-2.925h-5.0925v-1.411h5.7985v-3.0619h-9.7894v12.0432z" fill="url(#f)"/><path d="m52.3005 45.778c1.17 0 2.2135-.2062 3.1313-.6197.9178-.4125 1.6744-1.0087 2.2706-1.7887l-2.5631-2.2885c-.7453.9403-1.6228 1.411-2.6325 1.411-.8484 0-1.5309-.2728-2.0475-.8175-.5156-.5447-.7734-1.276-.7734-2.1938 0-.9169.2578-1.6481.7734-2.1928.5166-.5447 1.1991-.8175 2.0475-.8175 1.0097 0 1.8872.4706 2.6325 1.4109l2.5631-2.2884c-.5962-.78-1.3528-1.3762-2.2706-1.7887-.9178-.4135-1.9613-.6197-3.1313-.6197-1.2731 0-2.4196.2662-3.4406.7997-1.0209.5334-1.8206 1.2787-2.4 2.2368-.5794.9582-.869 2.0447-.869 3.2597 0 1.216.2896 2.3025.869 3.2606.5794.9582 1.3791 1.7035 2.4 2.2369 1.021.5335 2.1675.7997 3.4406.7997z" stroke="#0054d8" stroke-linecap="round" stroke-linejoin="round" stroke-width="3.75"/><path d="m52.3005 45.778c1.17 0 2.2135-.2062 3.1313-.6197.9178-.4125 1.6744-1.0087 2.2706-1.7887l-2.5631-2.2885c-.7453.9403-1.6228 1.411-2.6325 1.411-.8484 0-1.5309-.2728-2.0475-.8175-.5156-.5447-.7734-1.276-.7734-2.1938 0-.9169.2578-1.6481.7734-2.1928.5166-.5447 1.1991-.8175 2.0475-.8175 1.0097 0 1.8872.4706 2.6325 1.4109l2.5631-2.2884c-.5962-.78-1.3528-1.3762-2.2706-1.7887-.9178-.4135-1.9613-.6197-3.1313-.6197-1.2731 0-2.4196.2662-3.4406.7997-1.0209.5334-1.8206 1.2787-2.4 2.2368-.5794.9582-.869 2.0447-.869 3.2597 0 1.216.2896 2.3025.869 3.2606.5794.9582 1.3791 1.7035 2.4 2.2369 1.021.5335 2.1675.7997 3.4406.7997z" fill="url(#g)"/><path d="m29.1035 49.8382h-1.4794v2.8219h1.4794c.5503 0 .9637-.1238 1.2384-.3704.2757-.2465.4135-.5934.4135-1.0406s-.1378-.794-.4135-1.0406c-.2662-.24-.6628-.3628-1.1887-.3703zm.2579-3.1312h.0834c1.0782.0094 2.0194.1932 2.8247.5503.825.3675 1.4616.8944 1.9097 1.5835.4472.6881.6703 1.4906.6703 2.4084 0 .8597-.195 1.6116-.585 2.2538-.3787.6243-.9215 1.125-1.6265 1.5l-.0591.0309 2.5294 3.7163h-4.336l-2.0475-3.0282h-1.1006v3.0282h-4.0603v-12.0432z" stroke="#0054d8" stroke-linecap="round" stroke-linejoin="round" stroke-width="3.75"/><path d="m29.1035 49.8382h-1.4794v2.8219h1.4794c.5503 0 .9637-.1238 1.2384-.3704.2757-.2465.4135-.5934.4135-1.0406s-.1378-.794-.4135-1.0406c-.2662-.24-.6628-.3628-1.1887-.3703zm.2579-3.1312h.0834c1.0782.0094 2.0194.1932 2.8247.5503.825.3675 1.4616.8944 1.9097 1.5835.4472.6881.6703 1.4906.6703 2.4084 0 .8597-.195 1.6116-.585 2.2538-.3787.6243-.9215 1.125-1.6265 1.5l-.0591.0309 2.5294 3.7163h-4.336l-2.0475-3.0282h-1.1006v3.0282h-4.0603v-12.0432z" fill="url(#h)"/><path d="m46.2157 58.7502v-3.0629h-6.0215v-1.5825h5.0925v-2.925h-5.0925v-1.4109h5.7984v-3.0619h-9.7894v12.0432z" stroke="#0054d8" stroke-linecap="round" stroke-linejoin="round" stroke-width="3.75"/><path d="m46.2157 58.7502v-3.0629h-6.0215v-1.5825h5.0925v-2.925h-5.0925v-1.4109h5.7984v-3.0619h-9.7894v12.0432z" fill="url(#i)"/><path d="m54.2791 58.7502v-8.895h3.5269v-3.1482h-11.114v3.1482h3.5268v8.895z" stroke="#0054d8" stroke-linecap="round" stroke-linejoin="round" stroke-width="3.75"/><path d="m54.2791 58.7502v-8.895h3.5269v-3.1482h-11.114v3.1482h3.5268v8.895z" fill="url(#j)"/></g></svg>

<svg width="80" height="80" viewBox="0 0 80 80" fill="none" xmlns="http://www.w3.org/2000/svg">
<path d="M0 24C0 10.7452 10.7452 0 24 0H56C69.2548 0 80 10.7452 80 24V56C80 69.2548 69.2548 80 56 80H24C10.7452 80 0 69.2548 0 56V24Z" fill="#222425"/>
<mask id="mask0_1_1364" style="mask-type:luminance" maskUnits="userSpaceOnUse" x="16" y="16" width="48" height="48">
<path d="M64 16H16V64H64V16Z" fill="white"/>
</mask>
<g mask="url(#mask0_1_1364)">
<path d="M28.8372 32.2558V23.3608H32.3641V20.2126H21.25V23.3608H24.7769V32.2558H28.8372Z" stroke="#0054D8" stroke-width="3.75" stroke-linecap="round" stroke-linejoin="round"/>
<path d="M28.8372 32.2558V23.3608H32.3641V20.2126H21.25V23.3608H24.7769V32.2558H28.8372Z" fill="url(#paint0_linear_1_1364)"/>
<path d="M39.3773 23.2235C38.8729 23.2235 38.4173 23.3473 38.0095 23.5938C37.6026 23.8404 37.2782 24.1901 37.0373 24.6429C36.7964 25.0957 36.6764 25.6263 36.6764 26.2338C36.6764 26.8423 36.7964 27.3729 37.0373 27.8257C37.2782 28.2785 37.6026 28.6282 38.0095 28.8748C38.4173 29.1213 38.8729 29.2451 39.3773 29.2451C39.8817 29.2451 40.3382 29.1213 40.7451 28.8748C41.152 28.6282 41.4764 28.2785 41.7173 27.8257C41.9582 27.3729 42.0782 26.8423 42.0782 26.2338C42.0782 25.6263 41.9582 25.0957 41.7173 24.6429C41.4764 24.1901 41.152 23.8404 40.7451 23.5938C40.3382 23.3473 39.8817 23.2235 39.3773 23.2235ZM39.3777 19.9375C40.6733 19.9375 41.8377 20.2066 42.8699 20.7456C43.902 21.2847 44.7102 22.0338 45.2952 22.9909C45.8802 23.9491 46.1727 25.03 46.1727 26.2338C46.1727 27.4384 45.8802 28.5194 45.2952 29.4775C44.7102 30.4347 43.902 31.1828 42.8699 31.7219C41.8377 32.2609 40.6733 32.5309 39.3777 32.5309C38.0811 32.5309 36.9167 32.2609 35.8845 31.7219C34.8524 31.1828 34.0442 30.4347 33.4592 29.4775C32.8742 28.5194 32.5817 27.4384 32.5817 26.2338C32.5817 25.03 32.8742 23.9491 33.4592 22.9909C34.0442 22.0338 34.8524 21.2847 35.8845 20.7456C36.9167 20.2066 38.0811 19.9375 39.3777 19.9375Z" stroke="#0054D8" stroke-width="3.75" stroke-linecap="round" stroke-linejoin="round"/>
<path d="M39.3773 23.2235C38.8729 23.2235 38.4173 23.3473 38.0095 23.5938C37.6026 23.8404 37.2782 24.1901 37.0373 24.6429C36.7964 25.0957 36.6764 25.6263 36.6764 26.2338C36.6764 26.8423 36.7964 27.3729 37.0373 27.8257C37.2782 28.2785 37.6026 28.6282 38.0095 28.8748C38.4173 29.1213 38.8729 29.2451 39.3773 29.2451C39.8817 29.2451 40.3382 29.1213 40.7451 28.8748C41.152 28.6282 41.4764 28.2785 41.7173 27.8257C41.9582 27.3729 42.0782 26.8423 42.0782 26.2338C42.0782 25.6263 41.9582 25.0957 41.7173 24.6429C41.4764 24.1901 41.152 23.8404 40.7451 23.5938C40.3382 23.3473 39.8817 23.2235 39.3773 23.2235ZM39.3777 19.9375C40.6733 19.9375 41.8377 20.2066 42.8699 20.7456C43.902 21.2847 44.7102 22.0338 45.2952 22.9909C45.8802 23.9491 46.1727 25.03 46.1727 26.2338C46.1727 27.4384 45.8802 28.5194 45.2952 29.4775C44.7102 30.4347 43.902 31.1828 42.8699 31.7219C41.8377 32.2609 40.6733 32.5309 39.3777 32.5309C38.0811 32.5309 36.9167 32.2609 35.8845 31.7219C34.8524 31.1828 34.0442 30.4347 33.4592 29.4775C32.8742 28.5194 32.5817 27.4384 32.5817 26.2338C32.5817 25.03 32.8742 23.9491 33.4592 22.9909C34.0442 22.0338 34.8524 21.2847 35.8845 20.7456C36.9167 20.2066 38.0811 19.9375 39.3777 19.9375Z" fill="url(#paint1_linear_1_1364)"/>
<path d="M53.0143 23.3438H51.5349V26.1657H53.0143C53.5646 26.1657 53.978 26.0419 54.2527 25.7954C54.5284 25.5488 54.6662 25.2019 54.6662 24.7547C54.6662 24.3076 54.5284 23.9607 54.2527 23.7141C53.9865 23.4741 53.5899 23.3513 53.064 23.3438H53.0143ZM53.2723 20.2126H53.3557C54.4339 20.222 55.3751 20.4058 56.1804 20.763C57.0054 21.1305 57.642 21.6573 58.0901 22.3464C58.5373 23.0345 58.7604 23.837 58.7604 24.7548C58.7604 25.6717 58.5373 26.4751 58.0901 27.1633C57.642 27.8514 57.0054 28.3792 56.1804 28.7458C55.3751 29.1039 54.4339 29.2867 53.3557 29.2961H53.2723H51.5351V32.2558H47.4748V20.2126H53.2723Z" stroke="#0054D8" stroke-width="3.75" stroke-linecap="round" stroke-linejoin="round"/>
<path d="M53.0143 23.3438H51.5349V26.1657H53.0143C53.5646 26.1657 53.978 26.0419 54.2527 25.7954C54.5284 25.5488 54.6662 25.2019 54.6662 24.7547C54.6662 24.3076 54.5284 23.9607 54.2527 23.7141C53.9865 23.4741 53.5899 23.3513 53.064 23.3438H53.0143ZM53.2723 20.2126H53.3557C54.4339 20.222 55.3751 20.4058 56.1804 20.763C57.0054 21.1305 57.642 21.6573 58.0901 22.3464C58.5373 23.0345 58.7604 23.837 58.7604 24.7548C58.7604 25.6717 58.5373 26.4751 58.0901 27.1633C57.642 27.8514 57.0054 28.3792 56.1804 28.7458C55.3751 29.1039 54.4339 29.2867 53.3557 29.2961H53.2723H51.5351V32.2558H47.4748V20.2126H53.2723Z" fill="url(#paint2_linear_1_1364)"/>
<path d="M28.0368 45.778C29.2415 45.778 30.2653 45.5971 31.1081 45.2361C31.9509 44.8752 32.5846 44.3877 33.0093 43.7736C33.4331 43.1605 33.6459 42.4752 33.6459 41.7177C33.6459 40.8458 33.4134 40.1577 32.9484 39.6533C32.4843 39.1489 31.9368 38.7843 31.3059 38.5611C30.675 38.3371 29.9006 38.1393 28.9828 37.9677C28.2721 37.8299 27.7612 37.7005 27.4518 37.5805C27.1425 37.4596 26.9878 37.2796 26.9878 37.0386C26.9878 36.5333 27.509 36.2811 28.5534 36.2811C29.6081 36.2811 30.7265 36.5793 31.9078 37.1755L33.1293 34.2336C32.5218 33.8896 31.8187 33.6289 31.0218 33.4508C30.225 33.2736 29.4131 33.1846 28.5871 33.1846C27.3834 33.1846 26.3596 33.3627 25.5168 33.718C24.6731 34.0733 24.0403 34.5608 23.6156 35.1805C23.1909 35.7993 22.979 36.4874 22.979 37.2449C22.979 38.1168 23.2087 38.8077 23.6671 39.3177C24.1256 39.8286 24.6646 40.1952 25.2843 40.4193C25.904 40.6424 26.6775 40.8514 27.6065 41.0464C28.3293 41.1955 28.8487 41.3333 29.1637 41.4599C29.4796 41.5855 29.6371 41.7749 29.6371 42.0271C29.6371 42.2455 29.5162 42.4086 29.2753 42.5174C29.0343 42.6271 28.6331 42.6814 28.0715 42.6814C27.4171 42.6814 26.7356 42.5811 26.024 42.3805C25.3125 42.1799 24.6703 41.9127 24.0975 41.5799L22.7896 44.5396C23.3971 44.9174 24.1743 45.2193 25.1212 45.4424C26.0671 45.6664 27.0393 45.778 28.0368 45.778Z" stroke="#0054D8" stroke-width="3.75" stroke-linecap="round" stroke-linejoin="round"/>
<path d="M28.0368 45.778C29.2415 45.778 30.2653 45.5971 31.1081 45.2361C31.9509 44.8752 32.5846 44.3877 33.0093 43.7736C33.4331 43.1605 33.6459 42.4752 33.6459 41.7177C33.6459 40.8458 33.4134 40.1577 32.9484 39.6533C32.4843 39.1489 31.9368 38.7843 31.3059 38.5611C30.675 38.3371 29.9006 38.1393 28.9828 37.9677C28.2721 37.8299 27.7612 37.7005 27.4518 37.5805C27.1425 37.4596 26.9878 37.2796 26.9878 37.0386C26.9878 36.5333 27.509 36.2811 28.5534 36.2811C29.6081 36.2811 30.7265 36.5793 31.9078 37.1755L33.1293 34.2336C32.5218 33.8896 31.8187 33.6289 31.0218 33.4508C30.225 33.2736 29.4131 33.1846 28.5871 33.1846C27.3834 33.1846 26.3596 33.3627 25.5168 33.718C24.6731 34.0733 24.0403 34.5608 23.6156 35.1805C23.1909 35.7993 22.979 36.4874 22.979 37.2449C22.979 38.1168 23.2087 38.8077 23.6671 39.3177C24.1256 39.8286 24.6646 40.1952 25.2843 40.4193C25.904 40.6424 26.6775 40.8514 27.6065 41.0464C28.3293 41.1955 28.8487 41.3333 29.1637 41.4599C29.4796 41.5855 29.6371 41.7749 29.6371 42.0271C29.6371 42.2455 29.5162 42.4086 29.2753 42.5174C29.0343 42.6271 28.6331 42.6814 28.0715 42.6814C27.4171 42.6814 26.7356 42.5811 26.024 42.3805C25.3125 42.1799 24.6703 41.9127 24.0975 41.5799L22.7896 44.5396C23.3971 44.9174 24.1743 45.2193 25.1212 45.4424C26.0671 45.6664 27.0393 45.778 28.0368 45.778Z" fill="url(#paint3_linear_1_1364)"/>
<path d="M44.6845 45.503V42.4402H38.6629V40.8577H43.7554V37.9327H38.6629V36.5217H44.4614V33.4598H34.672V45.503H44.6845Z" stroke="#0054D8" stroke-width="3.75" stroke-linecap="round" stroke-linejoin="round"/>
<path d="M44.6845 45.503V42.4402H38.6629V40.8577H43.7554V37.9327H38.6629V36.5217H44.4614V33.4598H34.672V45.503H44.6845Z" fill="url(#paint4_linear_1_1364)"/>
<path d="M52.3005 45.778C53.4705 45.778 54.514 45.5718 55.4318 45.1583C56.3496 44.7458 57.1062 44.1496 57.7024 43.3696L55.1393 41.0811C54.394 42.0214 53.5165 42.4921 52.5068 42.4921C51.6584 42.4921 50.9759 42.2193 50.4593 41.6746C49.9437 41.1299 49.6859 40.3986 49.6859 39.4808C49.6859 38.5639 49.9437 37.8327 50.4593 37.288C50.9759 36.7433 51.6584 36.4705 52.5068 36.4705C53.5165 36.4705 54.394 36.9411 55.1393 37.8814L57.7024 35.593C57.1062 34.813 56.3496 34.2168 55.4318 33.8043C54.514 33.3908 53.4705 33.1846 52.3005 33.1846C51.0274 33.1846 49.8809 33.4508 48.8599 33.9843C47.839 34.5177 47.0393 35.263 46.4599 36.2211C45.8805 37.1793 45.5909 38.2658 45.5909 39.4808C45.5909 40.6968 45.8805 41.7833 46.4599 42.7414C47.0393 43.6996 47.839 44.4449 48.8599 44.9783C49.8809 45.5118 51.0274 45.778 52.3005 45.778Z" stroke="#0054D8" stroke-width="3.75" stroke-linecap="round" stroke-linejoin="round"/>
<path d="M52.3005 45.778C53.4705 45.778 54.514 45.5718 55.4318 45.1583C56.3496 44.7458 57.1062 44.1496 57.7024 43.3696L55.1393 41.0811C54.394 42.0214 53.5165 42.4921 52.5068 42.4921C51.6584 42.4921 50.9759 42.2193 50.4593 41.6746C49.9437 41.1299 49.6859 40.3986 49.6859 39.4808C49.6859 38.5639 49.9437 37.8327 50.4593 37.288C50.9759 36.7433 51.6584 36.4705 52.5068 36.4705C53.5165 36.4705 54.394 36.9411 55.1393 37.8814L57.7024 35.593C57.1062 34.813 56.3496 34.2168 55.4318 33.8043C54.514 33.3908 53.4705 33.1846 52.3005 33.1846C51.0274 33.1846 49.8809 33.4508 48.8599 33.9843C47.839 34.5177 47.0393 35.263 46.4599 36.2211C45.8805 37.1793 45.5909 38.2658 45.5909 39.4808C45.5909 40.6968 45.8805 41.7833 46.4599 42.7414C47.0393 43.6996 47.839 44.4449 48.8599 44.9783C49.8809 45.5118 51.0274 45.778 52.3005 45.778Z" fill="url(#paint5_linear_1_1364)"/>
<path d="M29.1035 49.8382H27.6241V52.6601H29.1035C29.6538 52.6601 30.0672 52.5363 30.3419 52.2897C30.6176 52.0432 30.7554 51.6963 30.7554 51.2491C30.7554 50.8019 30.6176 50.4551 30.3419 50.2085C30.0757 49.9685 29.6791 49.8457 29.1532 49.8382H29.1035ZM29.3614 46.707H29.4448C30.523 46.7164 31.4642 46.9002 32.2695 47.2573C33.0945 47.6248 33.7311 48.1517 34.1792 48.8408C34.6264 49.5289 34.8495 50.3314 34.8495 51.2492C34.8495 52.1089 34.6545 52.8608 34.2645 53.503C33.8858 54.1273 33.343 54.628 32.638 55.003L32.5789 55.0339L35.1083 58.7502H30.7723L28.7248 55.722H27.6242V58.7502H23.5639V46.707H29.3614Z" stroke="#0054D8" stroke-width="3.75" stroke-linecap="round" stroke-linejoin="round"/>
<path d="M29.1035 49.8382H27.6241V52.6601H29.1035C29.6538 52.6601 30.0672 52.5363 30.3419 52.2897C30.6176 52.0432 30.7554 51.6963 30.7554 51.2491C30.7554 50.8019 30.6176 50.4551 30.3419 50.2085C30.0757 49.9685 29.6791 49.8457 29.1532 49.8382H29.1035ZM29.3614 46.707H29.4448C30.523 46.7164 31.4642 46.9002 32.2695 47.2573C33.0945 47.6248 33.7311 48.1517 34.1792 48.8408C34.6264 49.5289 34.8495 50.3314 34.8495 51.2492C34.8495 52.1089 34.6545 52.8608 34.2645 53.503C33.8858 54.1273 33.343 54.628 32.638 55.003L32.5789 55.0339L35.1083 58.7502H30.7723L28.7248 55.722H27.6242V58.7502H23.5639V46.707H29.3614Z" fill="url(#paint6_linear_1_1364)"/>
<path d="M46.2157 58.7502V55.6873H40.1942V54.1048H45.2867V51.1798H40.1942V49.7689H45.9926V46.707H36.2032V58.7502H46.2157Z" stroke="#0054D8" stroke-width="3.75" stroke-linecap="round" stroke-linejoin="round"/>
<path d="M46.2157 58.7502V55.6873H40.1942V54.1048H45.2867V51.1798H40.1942V49.7689H45.9926V46.707H36.2032V58.7502H46.2157Z" fill="url(#paint7_linear_1_1364)"/>
<path d="M54.2791 58.7502V49.8552H57.806V46.707H46.692V49.8552H50.2188V58.7502H54.2791Z" stroke="#0054D8" stroke-width="3.75" stroke-linecap="round" stroke-linejoin="round"/>
<path d="M54.2791 58.7502V49.8552H57.806V46.707H46.692V49.8552H50.2188V58.7502H54.2791Z" fill="url(#paint8_linear_1_1364)"/>
</g>
<defs>
<linearGradient id="paint0_linear_1_1364" x1="26.8069" y1="20.2126" x2="26.8069" y2="29.7839" gradientUnits="userSpaceOnUse">
<stop stop-color="#DAFFFB"/>
<stop offset="0.5" stop-color="#C6EBFC"/>
<stop offset="1" stop-color="#B3D7FE"/>
</linearGradient>
<linearGradient id="paint1_linear_1_1364" x1="39.3774" y1="19.9375" x2="39.3774" y2="29.9463" gradientUnits="userSpaceOnUse">
<stop stop-color="#DAFFFB"/>
<stop offset="0.5" stop-color="#C6EBFC"/>
<stop offset="1" stop-color="#B3D7FE"/>
</linearGradient>
<linearGradient id="paint2_linear_1_1364" x1="53.1177" y1="20.2126" x2="53.1177" y2="29.7839" gradientUnits="userSpaceOnUse">
<stop stop-color="#DAFFFB"/>
<stop offset="0.5" stop-color="#C6EBFC"/>
<stop offset="1" stop-color="#B3D7FE"/>
</linearGradient>
<linearGradient id="paint3_linear_1_1364" x1="28.2176" y1="33.1846" x2="28.2176" y2="43.1933" gradientUnits="userSpaceOnUse">
<stop stop-color="#DAFFFB"/>
<stop offset="0.5" stop-color="#C6EBFC"/>
<stop offset="1" stop-color="#B3D7FE"/>
</linearGradient>
<linearGradient id="paint4_linear_1_1364" x1="39.6784" y1="33.4598" x2="39.6784" y2="43.0311" gradientUnits="userSpaceOnUse">
<stop stop-color="#DAFFFB"/>
<stop offset="0.5" stop-color="#C6EBFC"/>
<stop offset="1" stop-color="#B3D7FE"/>
</linearGradient>
<linearGradient id="paint5_linear_1_1364" x1="51.6467" y1="33.1846" x2="51.6467" y2="43.1933" gradientUnits="userSpaceOnUse">
<stop stop-color="#DAFFFB"/>
<stop offset="0.5" stop-color="#C6EBFC"/>
<stop offset="1" stop-color="#B3D7FE"/>
</linearGradient>
<linearGradient id="paint6_linear_1_1364" x1="29.3359" y1="46.707" x2="29.3359" y2="56.2782" gradientUnits="userSpaceOnUse">
<stop stop-color="#DAFFFB"/>
<stop offset="0.5" stop-color="#C6EBFC"/>
<stop offset="1" stop-color="#B3D7FE"/>
</linearGradient>
<linearGradient id="paint7_linear_1_1364" x1="41.2097" y1="46.707" x2="41.2097" y2="56.2782" gradientUnits="userSpaceOnUse">
<stop stop-color="#DAFFFB"/>
<stop offset="0.5" stop-color="#C6EBFC"/>
<stop offset="1" stop-color="#B3D7FE"/>
</linearGradient>
<linearGradient id="paint8_linear_1_1364" x1="52.2489" y1="46.707" x2="52.2489" y2="56.2782" gradientUnits="userSpaceOnUse">
<stop stop-color="#DAFFFB"/>
<stop offset="0.5" stop-color="#C6EBFC"/>
<stop offset="1" stop-color="#B3D7FE"/>
</linearGradient>
</defs>
</svg>
